X: 70
T: Lepatriinu Valss
R: waltz
C: Hartwin Dhoore
M: 8/8
L: 1/8
K: Em
V:1
"Em"BAB E2B AG | "D/F#"ADd c2B AB | "C"BAB E2B AG | "Bm"FD/E/F/G/ AA/G/A/c/ BA/B/ |
"Em"BAB E2B AG | "D/F#"ADd c2B AB | "C"BAB E2B AG | "Bm"AGF "Em"E3-E2 ||
"C"EDE "D"FDF "Em7"GD | "D/F#"ADd "G"c2B AB | "C"efg d2c Bc | "Bm"dfg c2B AG/F/ |
"C"EDE "D"FDF "Em7"GD | "D/F#"ADd "G"c2B AG | "C"GAB G2B AG | "Bm"FG/F/G/A/ F3-F2 |]
V:2
GFG E2G FE | FDF F3 DF | GFG E2G FE | F>DF F>DF G/F/E |
GFG E2G FE | FDF F3 DF | GFG E2G FE | FDF G3-G2 ||
GFG AGA BG | cGd c2B AG | GAB G2B AG| FG/F/G/A/ F2z GF |
GFG AGA BG | cGd c2B AG | EFG E2G FE| D>EF D3-D2 |]